dist/assets/img/price/price-img-phone-custom.svg

<svg width="40" height="52" viewBox="0 0 40 52" fill="none" xmlns="http://www.w3.org/2000/svg">
<path d="M24.8636 1H5.13636C2.85191 1 1 2.85191 1 5.13636V47.1364C1 49.4208 2.85191 51.2727 5.13636 51.2727H24.8636C27.1481 51.2727 29 49.4208 29 47.1364V5.13636C29 2.85191 27.1481 1 24.8636 1Z" stroke="#14161D"/>
<path fill-rule="evenodd" clip-rule="evenodd" d="M8.83566 22.7961C8.83566 22.5042 9.08624 22.2676 9.39535 22.2676H26.1861C26.4952 22.2676 26.7457 22.5042 26.7457 22.7961C26.7457 23.0881 26.4952 23.3248 26.1861 23.3248H9.39535C9.08624 23.3248 8.83566 23.0881 8.83566 22.7961ZM9.95504 24.9105C9.95504 24.6186 10.2056 24.382 10.5147 24.382H19.4698C19.7789 24.382 20.0295 24.6186 20.0295 24.9105C20.0295 25.2025 19.7789 25.4392 19.4698 25.4392H10.5147C10.2056 25.4392 9.95504 25.2025 9.95504 24.9105ZM9.39535 26.4964C9.08624 26.4964 8.83566 26.733 8.83566 27.0249C8.83566 27.3169 9.08624 27.5535 9.39535 27.5535H25.0667C25.3758 27.5535 25.6264 27.3169 25.6264 27.0249C25.6264 26.733 25.3758 26.4964 25.0667 26.4964H9.39535ZM9.95504 29.1393C9.95504 28.8474 10.2056 28.6107 10.5147 28.6107H17.231C17.5401 28.6107 17.7907 28.8474 17.7907 29.1393C17.7907 29.4313 17.5401 29.6679 17.231 29.6679H10.5147C10.2056 29.6679 9.95504 29.4313 9.95504 29.1393ZM10.5147 30.7251C10.2056 30.7251 9.95504 30.9618 9.95504 31.2537C9.95504 31.5457 10.2056 31.7823 10.5147 31.7823H17.231C17.5401 31.7823 17.7907 31.5457 17.7907 31.2537C17.7907 30.9618 17.5401 30.7251 17.231 30.7251H10.5147Z" fill="#E4E8F4"/>
<path d="M4.28669 26.9846C4.09943 26.9846 3.94806 27.1276 3.94806 27.3044C3.94806 27.4813 4.09943 27.6242 4.28669 27.6242C4.68051 27.6242 4.99103 27.7442 5.23585 27.9908C5.95069 28.7119 5.85453 30.2253 5.85285 30.2627V34.3404C5.85285 35.3673 6.15492 36.1595 6.74987 36.6929C7.46403 37.3339 8.36547 37.3793 8.60518 37.3793C8.63837 37.3793 8.65869 37.378 8.66412 37.378C8.85106 37.3694 8.99462 37.2188 8.98482 37.0419C8.97497 36.8647 8.81277 36.7285 8.62892 36.739C8.62007 36.7429 7.82128 36.7723 7.21615 36.2292C6.76033 35.8208 6.53008 35.185 6.53008 34.3404L6.52941 30.2842C6.53483 30.2109 6.64728 28.4791 5.73162 27.5552C5.63715 27.4599 5.53489 27.3757 5.42648 27.3048C5.53489 27.2331 5.63715 27.15 5.73162 27.054C6.64728 26.1288 6.53483 24.3979 6.53008 24.3464V20.2688C6.53008 19.4273 6.75899 18.7938 7.21072 18.3847C7.80908 17.843 8.61873 17.8686 8.63059 17.8698C8.81719 17.8807 8.97497 17.7432 8.98482 17.5669C8.99395 17.3904 8.85072 17.2404 8.66412 17.2308C8.61739 17.2315 7.5636 17.1861 6.75054 17.9162C6.15492 18.4503 5.85352 19.2421 5.85352 20.2688L5.8542 24.3678C5.88464 24.7891 5.83254 26.0152 5.23753 26.6168C4.99171 26.8643 4.68119 26.9846 4.28669 26.9846Z" fill="#3980FF"/>
<path d="M7.3862 1H22.6139C22.4594 2.07934 21.5312 2.90909 20.4091 2.90909H9.59095C8.46891 2.90909 7.54065 2.07934 7.3862 1Z" fill="#14161D" stroke="#14161D"/>
<path d="M33.0909 10H24.9091C21.6456 10 19 12.6456 19 15.9091V24.0909C19 27.3544 21.6456 30 24.9091 30H33.0909C36.3544 30 39 27.3544 39 24.0909V15.9091C39 12.6456 36.3544 10 33.0909 10Z" fill="#F4F6FA" stroke="#14161D"/>
<path d="M33.2353 12H24.7647C22.6855 12 21 13.6855 21 15.7647V24.2353C21 26.3145 22.6855 28 24.7647 28H33.2353C35.3145 28 37 26.3145 37 24.2353V15.7647C37 13.6855 35.3145 12 33.2353 12Z" fill="#E4E8F4"/>
<path d="M25.3 21.6998L24.9464 21.3463L24.8 21.4927V21.6998H25.3ZM30.7 16.2998L31.0535 15.9463C30.8583 15.751 30.5417 15.751 30.3464 15.9463L30.7 16.2998ZM33.7 19.2998L34.0535 19.6534C34.2488 19.4581 34.2488 19.1415 34.0535 18.9463L33.7 19.2998ZM28.3 24.6998V25.1998H28.5071L28.6535 25.0534L28.3 24.6998ZM25.3 24.6998H24.8C24.8 24.9759 25.0238 25.1998 25.3 25.1998V24.6998ZM25.6535 22.0534L31.0535 16.6534L30.3464 15.9463L24.9464 21.3463L25.6535 22.0534ZM30.3464 16.6534L33.3464 19.6534L34.0535 18.9463L31.0535 15.9463L30.3464 16.6534ZM33.3464 18.9463L27.9464 24.3463L28.6535 25.0534L34.0535 19.6534L33.3464 18.9463ZM28.3 24.1998H25.3V25.1998H28.3V24.1998ZM25.8 24.6998V21.6998H24.8V24.6998H25.8ZM28.5464 18.4534L31.5464 21.4534L32.2535 20.7463L29.2535 17.7463L28.5464 18.4534ZM29.8 25.1998H34V24.1998H29.8V25.1998Z" fill="black"/>
</svg>

<svg width="40" height="52" fill="none" xmlns="http://www.w3.org/2000/svg"><path d="M24.864 1H5.136A4.136 4.136 0 001 5.136v42a4.136 4.136 0 004.136 4.137h19.728A4.136 4.136 0 0029 47.136v-42A4.136 4.136 0 0024.864 1z" stroke="#14161D"/><path fill-rule="evenodd" clip-rule="evenodd" d="M8.836 22.796c0-.292.25-.528.56-.528h16.79c.31 0 .56.236.56.528 0 .292-.25.529-.56.529H9.396c-.31 0-.56-.237-.56-.529zm1.119 2.114c0-.291.25-.528.56-.528h8.955c.309 0 .56.237.56.528 0 .293-.251.53-.56.53h-8.955c-.31 0-.56-.238-.56-.53zm-.56 1.586c-.309 0-.56.237-.56.529 0 .292.251.529.56.529h15.672c.309 0 .56-.237.56-.53 0-.291-.251-.528-.56-.528H9.395zm.56 2.643c0-.292.25-.528.56-.528h6.716c.31 0 .56.236.56.528 0 .292-.25.529-.56.529h-6.716c-.31 0-.56-.237-.56-.529zm.56 1.586c-.31 0-.56.237-.56.529 0 .292.25.528.56.528h6.716c.31 0 .56-.236.56-.528 0-.292-.25-.529-.56-.529h-6.716z" fill="#E4E8F4"/><path d="M4.287 26.985a.33.33 0 00-.339.32c0 .176.151.32.339.32.394 0 .704.12.949.366.715.72.619 2.234.617 2.272v4.077c0 1.027.302 1.82.897 2.353.714.64 1.615.686 1.855.686l.06-.001a.327.327 0 00.32-.336.333.333 0 00-.356-.303c-.009.004-.808.033-1.413-.51-.456-.408-.686-1.044-.686-1.889v-4.056c.005-.073.117-1.805-.798-2.729a1.88 1.88 0 00-.306-.25c.109-.072.211-.155.306-.251.915-.925.803-2.656.798-2.708V20.27c0-.842.229-1.475.68-1.884.6-.542 1.409-.516 1.42-.515a.33.33 0 00.355-.303.328.328 0 00-.32-.336c-.048 0-1.101-.045-1.914.685-.596.534-.897 1.326-.897 2.353v4.099c.03.421-.021 1.647-.616 2.249-.246.247-.557.368-.951.368z" fill="#3980FF"/><path d="M7.386 1h15.228a2.228 2.228 0 01-2.205 1.91H9.591c-1.122 0-2.05-.83-2.205-1.91z" fill="#14161D" stroke="#14161D"/><path d="M33.09 10h-8.18A5.91 5.91 0 0019 15.91v8.18A5.91 5.91 0 0024.91 30h8.18A5.91 5.91 0 0039 24.09v-8.18A5.91 5.91 0 0033.09 10z" fill="#F4F6FA" stroke="#14161D"/><path d="M33.235 12h-8.47A3.765 3.765 0 0021 15.765v8.47A3.765 3.765 0 0024.765 28h8.47A3.765 3.765 0 0037 24.235v-8.47A3.765 3.765 0 0033.235 12z" fill="#E4E8F4"/><path d="M25.3 21.7l-.354-.354-.146.147v.207h.5zm5.4-5.4l.354-.354a.5.5 0 00-.708 0l.354.354zm3 3l.353.353a.5.5 0 000-.707l-.353.354zm-5.4 5.4v.5h.207l.146-.147-.353-.353zm-3 0h-.5a.5.5 0 00.5.5v-.5zm.354-2.647l5.4-5.4-.708-.707-5.4 5.4.707.707zm4.692-5.4l3 3 .708-.707-3-3-.708.707zm3 2.293l-5.4 5.4.707.707 5.4-5.4-.707-.707zM28.3 24.2h-3v1h3v-1zm-2.5.5v-3h-1v3h1zm2.746-6.247l3 3 .708-.707-3-3-.708.707zM29.8 25.2H34v-1h-4.2v1z" fill="#000"/></svg>
